X: 31029
T: Paddy Canny's Toast
R: reel
M: 4/4
K: Gdorian
DGGA dDcD|dDcD AGFC|DGGA dDcD|dcAF AGGF|
DGGA ~d2cA|~d2cA GFDC|DGGA dDcD|dcAF AGGA||
|:~B3c df~f2|~g3e fedc|~B3c df~f2|gfdB c_edc|
~B3c df~f2|gagd ~f2df|gfdc Bdcd|1 BGAF DGGA:|2 BGAF DGGF||

